X: 22
T:Kate Dalrymple
M:4/4
L:1/8
R:Reel
K:A
"A"A2 Ac "E"B2 Bc|"A"A2Ac "E"B2Bc|"A"A2 ag "D"fedc|1 "E"B2e2 "A"c2A2:|2
"E"B
2 e2 c2 "A"Ac||!
"A"e2 ef edcd|"A"e2a2e2 cd|"A"e2 a2 e2 a2|"A"e2 ag fedc|!
"D"d2 fd "A"c2ec|"E" B2 Bc "E7"d2cB|"A"A2 ag "D"fedc|"E"B2 e2 "A"c2 A2||
